X:81
T:Polonäs, sexdregasamlingen del 1 Nr 81
B:Sexdregasamlingen del 1 nr 81
Z:Per Oldberg 2010-07-19
M:3/4
L:1/16
O:Sexdrega, Västergöland
R:Polonäs
K:D
d4 D2d2 D2fe|f4 D2f2 D2ag|a2ba g2ag f2a2|g2gf e8|
A6 ge f2d2|A6 ge f2d2|A6 ge f2fa|cdec d4 D4:|
e2>d2 c2c2 c2Bc|d2>c2 B2B2 B2AB|c2B2d2c2 efed|c2Bc A8|
d2 f4 d4 ^d2|e2 g4 e4 g2|f2 a4 g2f2a2|g2gf e8:|

